X:7
T:Big John McManus
S:Bernie Waugh
R:Reel
M:4/4
L:1/8
K:D
"D"DFAd fdAF|"Em"G/G/GGF GABc|"D3"d2fd efdF|"A"E2~ED EGFE|
"D"DFAd fdAF|"Em"GFEF GABc|"D3"d/d/dfd "G"edce|1\
"A"d/d/dce "D"dBAF:|2\
"A"d/d/dce "D"d2ef||
|:\
"Em"geBe gee/e/e|gebe "A"gee/e/e|"D"fdAd fdd/d/d|fdad "Bm"fdef|
"Em"geBe gee/e/e|gebe gfeg|"D"fbfd "A"edce|"D"d/d/dce d2ef|
"Em"geBe gee/e/e|gebe "A"gee/e/e|"D"fdAd fdd/d/d|fdad "Bm"fdef|
"C"geBe gee/e/e|gebe gfeg|"Bm"fbfd "A"edce|"G"d/d/dce dBAF|]

